symbols/web/set_meal/materialsymbolsoutlined/set_meal_wght300grad200fill1_20px.svg

<svg xmlns="http://www.w3.org/2000/svg" height="20" width="20"><path d="M3.062 12.396q-.895 0-1.51-.615-.614-.614-.614-1.51V3.896q0-.896.614-1.511.615-.614 1.51-.614h13.876q.895 0 1.51.614.614.615.614 1.511v6.375q0 .896-.614 1.51-.615.615-1.51.615Zm-.374 2.729-.042-1 14.708-.771.042 1Zm-.063 2.063v-1h14.75v1Zm6.313-7.855q1.27 0 2.458-.489 1.187-.49 2.083-1.302.209.666.875 1.083.667.417 1.479.437V5.146q-.812.021-1.489.427-.677.406-.865 1.052-.958-.854-2.114-1.323-1.157-.469-2.427-.469-1.5 0-2.876.657-1.374.656-2.083 1.593.709.938 2.083 1.594 1.376.656 2.876.656Z"/></svg>

<svg xmlns="http://www.w3.org/2000/svg" height="20" width="20"><path d="M3.062 12.396Q2.167 12.396 1.552 11.781Q0.938 11.167 0.938 10.271V3.896Q0.938 3 1.552 2.385Q2.167 1.771 3.062 1.771H16.938Q17.833 1.771 18.448 2.385Q19.062 3 19.062 3.896V10.271Q19.062 11.167 18.448 11.781Q17.833 12.396 16.938 12.396ZM2.688 15.125 2.646 14.125 17.354 13.354 17.396 14.354ZM2.625 17.188V16.188H17.375V17.188ZM8.938 9.333Q10.208 9.333 11.396 8.844Q12.583 8.354 13.479 7.542Q13.688 8.208 14.354 8.625Q15.021 9.042 15.833 9.062V5.146Q15.021 5.167 14.344 5.573Q13.667 5.979 13.479 6.625Q12.521 5.771 11.365 5.302Q10.208 4.833 8.938 4.833Q7.438 4.833 6.062 5.49Q4.688 6.146 3.979 7.083Q4.688 8.021 6.062 8.677Q7.438 9.333 8.938 9.333Z"/></svg>
